projgeom/figs/F - Copy.svg

<?xml version="1.0" encoding="iso-8859-1" standalone="no"?> 
<?xml-stylesheet href="TE_export636163127278896561.css" type="text/css"?> 
<svg xmlns="http://www.w3.org/2000/svg" xmlns:xlink="http://www.w3.org/1999/xlink" width="400pt" height="320pt" viewBox="-55.06119 -50.82971 199.2901 161.97192 "> 
<g transform="translate(0, 111.14221 ) scale(1,-1) translate(0,50.82971 )"> 
                 <g> 
 <g stroke="rgb(0.0%,0.0%,0.0%)"> 
 <g fill="rgb(0.0%,0.0%,0.0%)"> 
 <g stroke-width="0.4pt"> 
 <g> 
 <g stroke-linecap="round"> 
 <g stroke-linejoin="round"> 
 <clipPath id="pgfcp1"> <path d=" M  -55.06119 -50.82971 M  -55.06119 -50.82971 L  -55.06119 111.14221 L  144.22891 111.14221 L  144.22891 -50.82971 Z M  144.22891 111.14221  "/> 
</clipPath> 
 <g clip-path="url(#pgfcp1)"> 
 <path d=" M  32.72069 19.91682 M  -12.03114 47.57423 C  -21.47156 32.2989 -9.08855 7.53369 15.62752 -7.74126 C  40.34358 -23.0162 68.0321 -23.01591 77.47252 -7.74059 C  86.91293 7.53474 74.52992 32.29996 49.81386 47.5749 C  25.0978 62.84985 -2.59073 62.84956 -12.03114 47.57423 Z M  32.72069 19.91682  " style="fill:none"/> 
 <g> 
 <g stroke-dasharray="4.0pt,4.0pt" stroke-dashoffset="0.0pt"> 
 <path d=" M  -55.06119 46.6082 L  -46.75755 48.22195 L  -38.45392 49.83571 L  -30.15028 51.44946 L  -21.84665 53.06343 L  -13.543 54.67674 L  -5.23936 56.29071 L  3.06425 57.90382 L  11.36789 59.51756 L  19.67152 61.13132 L  27.97516 62.74507 L  36.27881 64.35904 L  44.58244 65.97258 L  52.88608 67.5861 L  61.18971 69.19986 L  69.49335 70.81383 L  77.797 72.42694 L  86.10063 74.04091 L  94.40427 75.65488 L  102.7079 77.26819 L  111.01154 78.88216 L  119.31517 80.4957 L  127.61882 82.10945 L  135.92245 83.72298 L  144.22609 85.33694  " style="fill:none"/> 
 </g> 
 </g> 
 <g> 
 <g stroke-dasharray="4.0pt,4.0pt" stroke-dashoffset="0.0pt"> 
 <path d=" M  -55.06119 936.96968 L  -46.75755 879.9969 L  -38.45392 823.02368 L  -30.15028 766.0509 L  -21.84665 709.07813 L  -13.543 652.10513 L  -5.23936 595.13235 L  3.06425 538.15979 L  11.36789 481.18678 L  19.67152 424.214 L  27.97516 367.24123 L  36.27881 310.268 L  44.58244 253.29523 L  52.88608 196.32245 L  61.18971 139.34923 L  69.49335 82.37645 L  77.797 25.40367 L  86.10063 -31.56909 L  94.40427 -88.54187 L  102.7079 -145.51466 L  111.01154 -202.48787 L  119.31517 -259.46065 L  127.61882 -316.43365 L  135.92245 -373.40643 L  144.22609 -430.37943  " style="fill:none"/> 
 </g> 
 </g> 
 <g> 
 <g stroke="rgb(100.0%,0.0%,0.0%)"> 
 <g fill="rgb(100.0%,0.0%,0.0%)"> 
 <path d=" M  -55.06119 98.35507 L  -46.75755 92.81917 L  -38.45392 87.28326 L  -30.15028 81.74779 L  -21.84665 76.2108 L  -13.543 70.67621 L  -5.23936 65.14052 L  3.06425 59.6044 L  11.36789 54.06894 L  19.67152 48.53325 L  27.97516 42.99756 L  36.27881 37.46187 L  44.58244 31.92596 L  52.88608 26.39029 L  61.18971 20.85307 L  69.49335 15.3187 L  77.797 9.783 L  86.10063 4.2471 L  94.40427 -1.28856 L  102.7079 -6.82425 L  111.01154 -12.35994 L  119.31517 -17.8954 L  127.61882 -23.43152 L  135.92245 -28.96721 L  144.22609 -34.50311  " style="fill:none"/> 
 </g> 
 </g> 
 </g> 
 <g> 
 <g stroke="rgb(0.0%,0.0%,100.0%)"> 
 <g fill="rgb(0.0%,0.0%,100.0%)"> 
 <path d=" M  43.93599 -10.79025  " style="fill:none"/> 
 <g> 
 <g> 
 <g transform="matrix(1.0,0.0,0.0,1.0,40.719,-13.18192)"> 
 <g fill="rgb(0.0%,0.0%,100.0%)"> 
 <text style="stroke:none" transform="scale(1,-1) translate(3.217,0)" text-anchor="middle"  font-size="7"> 
<tspan font-family="cmsy" font-size="7"><img 
src="cmsy7-46.png" alt="F" class="7x-x-46" /></tspan></text> 
</g> 
 </g> 
 </g> 
 </g> 
 </g> 
 </g> 
 </g> 
 <g> 
 <g fill="rgb(100.0%,0.0%,0.0%)"> 
 <path d=" M  71.13185 71.13185 M  72.38185 71.13185 C  72.38185 71.8222 71.8222 72.38185 71.13185 72.38185 C  70.4415 72.38185 69.88185 71.8222 69.88185 71.13185 C  69.88185 70.4415 70.4415 69.88185 71.13185 69.88185 C  71.8222 69.88185 72.38185 70.4415 72.38185 71.13185 Z M  71.13185 71.13185  " /> 
 </g> 
 </g> 
 <g> 
 <g stroke="rgb(100.0%,0.0%,0.0%)"> 
 <g fill="rgb(100.0%,0.0%,0.0%)"> 
 <path d=" M  72.96138 76.02672  " style="fill:none"/> 
 <g> 
 <g> 
 <g transform="matrix(1.0,0.0,0.0,1.0,59.48155,72.78172)"> 
 <g fill="rgb(100.0%,0.0%,0.0%)"> 
 <text style="stroke:none" transform="scale(1,-1) translate(13.47983,0)" text-anchor="middle"  font-size="7"> 
<tspan font-family="cmmi" font-size="7">A </tspan><tspan font-family="cmr" font-size="7">= </tspan><tspan font-family="cmmi" font-size="7">a</tspan><tspan baseline-shift="sub"><tspan font-family="cmsy" font-size="5">&#x22A5;</tspan></tspan></text> 
</g> 
 </g> 
 </g> 
 </g> 
 </g> 
 </g> 
 </g> 
 <g> 
 <g fill="rgb(26.66626%,26.66626%,26.66626%)"> 
 <path d=" M  5.03966 58.28783 M  5.78966 58.28783 C  5.78966 58.70204 5.45387 59.03783 5.03966 59.03783 C  4.62544 59.03783 4.28966 58.70204 4.28966 58.28783 C  4.28966 57.87361 4.62544 57.53783 5.03966 57.53783 C  5.45387 57.53783 5.78966 57.87361 5.78966 58.28783 Z M  5.03966 58.28783  " /> 
 </g> 
 </g> 
 <g> 
 <g fill="rgb(26.66626%,26.66626%,26.66626%)"> 
 <path d=" M  80.31856 8.10196 M  81.06856 8.10196 C  81.06856 8.51617 80.73277 8.85196 80.31856 8.85196 C  79.90434 8.85196 79.56856 8.51617 79.56856 8.10196 C  79.56856 7.68774 79.90434 7.35196 80.31856 7.35196 C  80.73277 7.35196 81.06856 7.68774 81.06856 8.10196 Z M  80.31856 8.10196  " /> 
 </g> 
 </g> 
 <g> 
 <g stroke="rgb(100.0%,0.0%,0.0%)"> 
 <g fill="rgb(100.0%,0.0%,0.0%)"> 
 <path d=" M  -52.9881 94.68604  " style="fill:none"/> 
 <g> 
 <g> 
 <g transform="matrix(1.0,0.0,0.0,1.0,-55.15692,93.1791)"> 
 <g fill="rgb(100.0%,0.0%,0.0%)"> 
 <text style="stroke:none" transform="scale(1,-1) translate(2.16882,0)" text-anchor="middle"  font-size="7"> 
<tspan font-family="cmmi" font-size="7">a</tspan></text> 
</g> 
 </g> 
 </g> 
 </g> 
 </g> 
 </g> 
 </g> 
 </g> 
 </g> 
 </g> 
 </g> 
 </g> 
 </g> 
 </g> 
 </g> 
 
                                                             </g> 
</svg>

<?xml-stylesheet href="TE_export636163127278896561.css" type="text/css"?>
<svg xmlns="http://www.w3.org/2000/svg" width="400pt" height="320pt" viewBox="-55.1 -50.8 199.3 162">
  <g stroke-linejoin="round" transform="matrix(1 0 0 -1 0 60.3)" stroke-linecap="round" stroke-width=".5" stroke="#000">
    <clipPath id="a">
      <path d="M-55-50.8v162h199.2v-162zm199.2 162"/>
    </clipPath>
    <g clip-path="url(#a)">
      <path d="M-12 47.6c-9.5-15.3 3-40 27.6-55.3C40.3-23 68-23 77.5-7.7c9.4 15.2-3 40-27.7 55.3-24.7 15.2-52.4 15.2-61.8 0zm44.7-27.7" fill="none"/>
      <path d="M-55 46.6l8.2 1.6 8.3 1.6 8.3 1.6 8.4 1.7 8.3 1.6 8.3 1.6L3 57.9l8.3 1.6 8.3 1.6 8.3 1.6 8.3 1.7 8.3 1.6 8.3 1.6 8.3 1.6 8.3 1.6 8.3 1.6 8.3 1.6 8.3 1.7 8.3 1.6 8.3 1.6 8.3 1.6 8.3 1.6 8.3 1.6 8.3 1.6" fill="none" stroke-dasharray="4.0pt,4.0pt"/>
      <path d="M-55 937l8.2-57 8.3-57 8.3-57 8.4-57 8.3-56.9 8.3-57 8.3-57 8.3-57 8.3-56.9 8.3-57 8.3-57 8.3-56.9 8.3-57 8.3-57 8.3-57 8.3-56.9 8.3-57 8.3-57 8.3-57 8.3-56.9 8.3-57 8.3-57 8.3-57 8.3-56.9" fill="none" stroke-dasharray="4.0pt,4.0pt"/>
      <path d="M-55 98.4l8.2-5.6 8.3-5.5 8.3-5.6 8.4-5.5 8.3-5.5 8.3-5.6L3 59.6l8.3-5.5 8.3-5.6L28 43l8.3-5.5 8.3-5.6 8.3-5.5 8.3-5.5 8.3-5.6 8.3-5.5 8.3-5.6 8.3-5.5 8.3-5.5 8.3-5.6 8.3-5.5 8.3-5.5L136-29l8.3-5.5" fill="none" stroke="red"/>
      <text transform="matrix(1 0 0 -1 44 -13.2)" text-anchor="middle" font-size="7" stroke="none" fill="#00F">
        
      </text>
      <path d="M72.39999999999999 71.1a1.3 1.3 0 1 1-2.5 0 1.3 1.3 0 0 1 2.5 0zm-1.3 0" fill="red"/>
      <text transform="matrix(1 0 0 -1 73 72.8)" text-anchor="middle" font-size="7" stroke="none" fill="red">
        <tspan font-family="cmmi">A </tspan><tspan font-family="cmr">= </tspan><tspan font-family="cmmi">a</tspan><tspan baseline-shift="sub"><tspan font-family="cmsy" font-size="5">⊥</tspan></tspan>
      </text>
      <path d="M5.8 58.3a.8.8 0 1 1-1.5 0 .8.8 0 0 1 1.5 0zm-.8 0M81.1 8.1a.8.8 0 1 1-1.5 0 .8.8 0 0 1 1.5 0zm-.8 0" fill="#444"/>
      <text transform="matrix(1 0 0 -1 -53 93.2)" text-anchor="middle" font-size="7" stroke="none" fill="red">
        <tspan font-family="cmmi">a</tspan>
      </text>
    </g>
  </g>
</svg>
